images/name_logo.svg

<?xml version="1.0" encoding="utf-8"?>
<!-- Generator: Adobe Illustrator 22.0.1, SVG Export Plug-In . SVG Version: 6.00 Build 0)  -->
<svg version="1.1" id="레이어_1" xmlns="http://www.w3.org/2000/svg" xmlns:xlink="http://www.w3.org/1999/xlink" x="0px"
	 y="0px" viewBox="0 0 1322 438" style="enable-background:new 0 0 1322 438;" xml:space="preserve">
<style type="text/css">
	.st0{fill:#FD2D97;}
</style>
<title>자산 3</title>
<g id="레이어_2_1_">
	<g id="레이어_1-2">
		<g>
			<path class="st0" d="M662.5,63c0,79.3-47.2,131.5-133.9,153.4l-18.8-38.9c60.8-14.8,92.3-42.9,99.1-75.6h-81.5V63H662.5z
				 M557.8,219.5H752v114.8H557.8V219.5z M606.9,295.7h96V258h-96V295.7z M752,47.6v160.5h-50V47.6H752z"/>
			<path class="st0" d="M1056.3,180.3v39.2H793.6v-39.2h106.2v-18.8h-75.3V59.6h201.2v38.9H874.2v24.1h152.8v38.9h-77.2v18.8H1056.3
				z M1025.1,284.3c0,34.3-38.6,54-101.5,54c-62.7,0-101.2-19.8-101.2-54c0-34.6,38.6-54.3,101.2-54.3
				C986.5,230,1025.1,249.7,1025.1,284.3L1025.1,284.3z M974.5,284.3c0-12-15.7-16.7-50.9-16.7s-50.6,4.6-50.6,16.7
				s15.4,16.4,50.6,16.4S974.5,296.3,974.5,284.3L974.5,284.3z"/>
			<path class="st0" d="M1235.6,108.1h-157.1V69.5h56.2V45.4h50v24.1h50.9L1235.6,108.1z M1159.3,227.2c-38.9,0-69.1-24.1-69.1-56.2
				s30.3-56.2,69.1-56.2c39.2,0,69.4,24.1,69.4,56.2S1198.5,227.2,1159.3,227.2L1159.3,227.2z M1122.3,243.2H1322v94.1h-50v-55.2
				h-149.7L1122.3,243.2z M1159.3,189.8c13.3,0,23.1-6.2,23.1-18.8s-9.9-18.8-23.1-18.8c-13,0-22.8,6.2-22.8,18.8
				S1146.4,189.8,1159.3,189.8L1159.3,189.8z M1322,47.9v184.6h-50v-27.8h-31.8v-39.2h31.8v-17.3h-30.9V109h30.9V47.6L1322,47.9z"/>
		</g>
		<path class="st0" d="M29.4,0L0,75.2v307.3h104.6V438h58.8l55.6-55.6h85L418.4,268V0H29.4z M379.2,248.4l-65.4,65.4H209.2
			l-55.6,55.6v-55.6H65.4V39.2h313.8V248.4z M313.8,114.4v114.3h-39.2V114.4L313.8,114.4z M209.2,114.4v114.3H170V114.4L209.2,114.4
			z"/>
		<rect x="53.5" y="35.3" class="st0" width="338" height="235"/>
		<rect x="37.5" y="254.3" class="st0" width="325" height="64"/>
		<rect x="122.5" y="286.3" class="st0" width="90" height="80"/>
		<rect x="127.5" y="344.3" class="st0" width="46" height="36"/>
	</g>
</g>
</svg>

<svg xmlns="http://www.w3.org/2000/svg" viewBox="0 0 1322 438"><title>자산 1</title><g id="레이어_2" data-name="레이어 2"><g id="레이어_1-2" data-name="레이어 1"><g id="레이어_2-2" data-name="레이어 2"><g id="레이어_1-2-2" data-name="레이어 1-2"><path d="M662.5,63c0,79.3-47.2,131.5-133.9,153.4l-18.8-38.9c60.8-14.8,92.3-42.9,99.1-75.6H527.4V63ZM557.8,219.5H752V334.3H557.8Zm49.1,76.2h96V258h-96ZM752,47.6V208.1H702V47.6Z"/><path d="M1056.3,180.3v39.2H793.6V180.3H899.8V161.5H824.5V59.6h201.2V98.5H874.2v24.1H1027v38.9H949.8v18.8Zm-31.2,104c0,34.3-38.6,54-101.5,54-62.7,0-101.2-19.8-101.2-54,0-34.6,38.6-54.3,101.2-54.3,62.9,0,101.5,19.7,101.5,54.3Zm-50.6,0c0-12-15.7-16.7-50.9-16.7S873,272.2,873,284.3s15.4,16.4,50.6,16.4,50.9-4.4,50.9-16.4Z"/><path d="M1235.6,108.1H1078.5V69.5h56.2V45.4h50V69.5h50.9Zm-76.3,119.1c-38.9,0-69.1-24.1-69.1-56.2s30.3-56.2,69.1-56.2c39.2,0,69.4,24.1,69.4,56.2s-30.2,56.2-69.4,56.2Zm-37,16H1322v94.1h-50V282.1H1122.3Zm37-53.4c13.3,0,23.1-6.2,23.1-18.8s-9.9-18.8-23.1-18.8c-13,0-22.8,6.2-22.8,18.8s9.9,18.8,22.8,18.8ZM1322,47.9V232.5h-50V204.7h-31.8V165.5H1272V148.2h-30.9V109H1272V47.6Z"/><path d="M29.4,0,0,75.2V382.5H104.6V438h58.8L219,382.4h85L418.4,268V0ZM379.2,248.4l-65.4,65.4H209.2l-55.6,55.6V313.8H65.4V39.2H379.2V248.4Zm-65.4-134V228.7H274.6V114.4Zm-104.6,0V228.7H170V114.4Z"/><rect x="53.5" y="35.3" width="338" height="235"/><rect x="37.5" y="254.3" width="325" height="64"/><rect x="122.5" y="286.3" width="90" height="80"/><rect x="127.5" y="344.3" width="46" height="36"/></g></g></g></g></svg>
